X: 1493
T: the Callan Lasses   #2
T: na cailini.de ua .callann.
R: reel
%S: s:2 b:11(5+6)
O: Fielding
B: O'Neill's "Music of Ireland" 1850 #1493
Z: John B. Walsh, 8/22/96
M: C|
L: 1/8
K: D
|: AD (3DDD (AD)FD | ADFA BcdB | AD (3DDD (AD)FA |1 GFEF GABd :|2 GFEF GABc |]
|: d2(fd) AdFA | d2(fd) cde [1 c | d2(fd) (3(Bcd) AF | GFEF GABc :|[2 g | fdec dBAF | GFEF GABd |]
